X:8
%
%%barnumbers 0
%%barnumberfirst 61
%%topspace -0.5cm
%%systemsep 80pt
%%sysstaffsep 25pt
%
%-- try & error value for leftmargin to reset margin of previous tune
%--- on same page. Reason: %%leftmargin is partly affected by %%scale
%
%%leftmargin 0.40cm
%
L:1/4
M:C|
K:F
%
V:S  clef=treble  bracket=3
V:A  clef=treble8
V:B  clef=bass
%
P:Tenor tacet
%
[V:S] F4 | G2 F2 | B3 A | GF G>F | G/A/ B2 A |
w: De-po - - su-it po-ten - **-*
[V:A] z4 | z2 B2- | B2 c2 | B2 _e2- | ed cd- |
w: De - po- - - - su-it po-
[V:B] z4 | z4 | z4 | z4 | z2 f2 |
w: De-
%
%%vskip 0.5cm
%
[V:S] B2 zB | d3 c | BAGF | G2 FG | F G3/2 A/B/G/ |
w: tes, de-po-su-it po-ten * - tes de se *-**
[V:A] d/c/B A/B/c/A/ | BG F2 | z2 B2- | B2 B2 | B2 B2 |
w: *-* ten *-* -* tes, po - ten-tes de
[V:B] g2f2 | b3a | gf _ed | _e2 B_e | d_e>fg |
w: po - - su-it po-ten - - tes de se *-*
%
%%newpage
%
%-- now we must reset leftmargin to its default value, because %%newpage
%-- resets the initial page translation
%-- (yes, this is ugly, but not easy to fix)
%
%%leftmargin 1.8cm
%
[V:S] AB2 A | B3/2 A//G// FG | GG G2 | FG2 F/E/ |
w: *-* | de*** et ex-al-ta-vit hu -*
[V:A] cd c2 | B4 | z BBB | B2 GB- |
w: se *- de et ex-al-ta-vit hu-
[V:B] fd_ef | B2 z_e | _eee2 | d_e2 d/c/ |
w: **-* de et ex-al-ta-vit hu -*
%
[V:S] DE F>G | AG2 ^F | G2 zB | BB B2- | BA FF |
w: **-* *- mi-les, et ex-al-ta- - vit hu-mi-
[V:A] BA/G/ F/G/A/B/ | c2 A2 | Gddd | d3 G | Bc d/A/d- |
w: *** -*** - mi-les, et ex-al-ta-vit hu *-**
[V:B] Bcd2 | c2d2 | G2 zg | ggg2- | gf d2 |
w: *-* - mi-les, et ex-al-ta- - vit hu-
%
[V:S] G2 zd | dd d2- | dc AB- | B/A/ G2 ^F |
w: les, et ex-al-ta- - vit hu - **- mi-
[V:A] dc d2 | zfff | de f/e/d/c/ | B2 A2 |
w: - mi-les, et ex-al-ta-vit hu *-* - mi-
[V:B] _e2 Bb | bbb2- | bafg- | g/f/_e/d/ cd |
w: mi-les, et ex-al-ta- - vit hu- * -***- mi-
%
[V:S] GBBB | G3/2 A/B/c/ d- | dc AB- | B/A/ G2 ^F | G4 |]
w: les, et ex-al-ta *-** - vit hu - **- mi-les.
[V:A] G2 zB | BB B2- | BA F2 | G2 A2 | G4 |]
w: les, et ex-al-ta- - vit hu - mi-les.
[V:B] Gggg | _e3 d/c/ | BcdB | _e2d2 | G4 |]
w: les, et ex-al-ta- ** - vit hu- * - mi-les.

%---------------------------------------------------------------------------
